X:1
T:A Home on High
T:A Home on High
T:George Coles Stebbins
T:L. W. Mansfield, 1896
T:Public Domain Courtesy of the Cyber Hymnal™
T:Public Domain Courtesy of the Cyber Hymnal™
C:George Coles Stebbins
Z:Public Domain
Z:Courtesy of the Cyber Hymnal™
%%score ( 1 2 ) ( 3 4 )
L:1/8
Q:1/4=110
M:4/4
K:Ab
V:1 treble 
V:2 treble 
V:3 bass 
V:4 bass 
V:1
 [CA]2 | [Ec]3 [Ec] [Fd][Ec][DB][Ec] | [CA]6 [EA]2 | [FA]3 [FA] [EG]2 [DF]2 | [CE]6 E2 | %5
w: 1.~Be-|yond the light of set- ting|suns, Be-|yond the cloud- ed|sky, Be-|
w: 2.~Be-|yond all pain, be- yond all|care, Be-|yond life’s mys- te-|ry, Be-|
w: 3.~Swift|fly- ing worlds, their nights that|roll Far|out on seas of|light, Will|
w: 4.~My|sins and sor- rows, strifes and|fears, I|bid them all fare-|well, High|
 [DG]3 [DG] [DF][EG] [EA]>[EB] | [Ec]6 [Ec]2 | [EB]3 [EB] [=DA]2 [DF]2 | E4 z || %9
w: yond where star- light fades in|night, I|have a home on|high.|
w: yond the range of time and|change, My|home’s re- served for|me.|
w: bring no dark- ness to my|soul; My|home’s be- yond the|night.|
w: up a- mid th’e- ter- nal|years, With|Christ, my Lord, to|dwell.|
"^Refrain" E[GB]>[Ac] | d4- [Ed]>[DG] [CA]>[EB] | c4- [Ec]2 [=EB]2 | A4- [FA]>[AB] [Ac]>[AB] | %13
w: ||||
w: A man- sion|there, not made with hands,|* A place|* pre- pared for me;|
w: ||||
w: ||||
 e4- !fermata![Be]2 [Gd]2 | [Ac]3 [Ac] [Ad][Ac][EB][Ec] | A4- [FA]2 [DF]2 | E4- [CE][Ec][DB][Ec] | %17
w: ||||
w: * And while|* God lives, and an- gels|sing, That home|* my home shall be.|
w: ||||
w: ||||
 A4- !fermata![CA]2 |] %18
w: |
w: |
w: |
w: |
V:2
 x2 | x8 | x8 | x8 | x6 E2 | x8 | x8 | x8 | E4 x || E x2 | BAG>F x4 | AAG>F x4 | F2 F2 x4 | %13
 G>GG>A x4 | x8 | E2 _GG x4 | C2 C2 x4 | C>EDD x2 |] %18
V:3
 [A,,E,]2 | [A,,A,]3 [A,,A,] [A,,A,][A,,A,][A,,A,][A,,A,] | [A,,E,]6 [C,A,]2 | %3
w: ~|~ ~ ~ ~ ~ ~|~ ~|
 [D,A,]3 [D,A,] [D,A,]2 [D,A,]2 | [A,,A,]6 [A,,C]2 | [E,B,]3 [E,B,] [E,A,][D,B,] [C,A,]>[E,G,] | %6
w: ~ ~ ~ ~|~ ~|~ ~ ~ ~ ~ ~|
 A,6 [A,,A,]2 | [B,,G,]3 [B,,G,] [B,,F,]2 [B,,A,]2 | [E,G,]4 z || z3 | %10
w: ~ ~|~ ~ ~ ~|~||
 z [E,B,] [E,B,]>[E,A,] [E,G,]3/2 z/ z2 | z [A,E] [A,E]>[A,E] [A,E]2 [G,C]2 | %12
w: a man- sion there,|not made with hands ~|
 [F,C]2 [F,C]2 [F,C]>[F,=D] [B,E]>[B,D] | [E,E]>[E,B,] [E,B,]>[E,C] !fermata![E,D]2 [E,E]2 | %14
w: ~ a place ~ ~ ~|pre- pared for me; ~ ~|
 [A,E]3 [A,E] [A,F][A,E][A,D][A,E] | [A,C]2 [C,E][C,E] [D,D]2 [D,A,]2 | %16
w: ~ ~ ~ ~ ~ ~|~ an- gels sing ~|
 [E,A,]2 [E,A,]2 [E,A,][E,A,][E,G,][E,G,] | A,>_G, F,_F, !fermata![A,,E,]2 |] %18
w: ~ that home ~ ~ ~|~ my home shall~be *|
V:4
 x2 | x8 | x8 | x8 | x8 | x8 | A,6 x2 | x8 | x5 || x3 | x8 | x8 | x8 | x8 | x8 | x8 | x8 | %17
 A,,4- x2 |] %18

